zondicons/svg/radio.svg

<svg width="20px" height="20px" viewBox="0 0 20 20" version="1.1" xmlns="http://www.w3.org/2000/svg" xmlns:xlink="http://www.w3.org/1999/xlink"><title>radio</title><desc>Created with Sketch.</desc><defs></defs><g id="Page-1" stroke="none" stroke-width="1" fill="none" fill-rule="evenodd"><g id="radio" fill="#000000"><path d="M20,9.00292933 L20,17.9941413 C20,19.1019465 19.1017876,20 18.0092049,20 L1.99079514,20 C0.891309342,20 0,19.1029399 0,17.9941413 L0,8.00585866 C0,6.89805351 0.898212381,6 1.99079514,6 L15.7965507,6 L0.741180955,1.96592583 L1.25881905,0.0340741737 L20,5.05575848 L20,6.56315542 L20,9.00292933 L20,9.00292933 Z M15,18 C16.6568542,18 18,16.6568542 18,15 C18,13.3431458 16.6568542,12 15,12 C13.3431458,12 12,13.3431458 12,15 C12,16.6568542 13.3431458,18 15,18 L15,18 Z M2,8 L18,8 L18,10 L2,10 L2,8 L2,8 Z M3.5,18 C4.32842712,18 5,17.3284271 5,16.5 C5,15.6715729 4.32842712,15 3.5,15 C2.67157288,15 2,15.6715729 2,16.5 C2,17.3284271 2.67157288,18 3.5,18 Z M8.5,18 C9.32842712,18 10,17.3284271 10,16.5 C10,15.6715729 9.32842712,15 8.5,15 C7.67157288,15 7,15.6715729 7,16.5 C7,17.3284271 7.67157288,18 8.5,18 Z M15,17 C16.1045695,17 17,16.1045695 17,15 C17,13.8954305 16.1045695,13 15,13 C13.8954305,13 13,13.8954305 13,15 C13,16.1045695 13.8954305,17 15,17 Z" id="Combined-Shape"></path></g></g></svg>

<svg xmlns="http://www.w3.org/2000/svg" viewBox="0 0 20 20"><path d="M20 9v9a2 2 0 0 1-2 2H2a2 2 0 0 1-2-2V8c0-1.1.9-2 2-2h13.8L.74 1.97 1.26.03 20 5.06V9zm-5 9a3 3 0 1 0 0-6 3 3 0 0 0 0 6zM2 8v2h16V8H2zm1.5 10a1.5 1.5 0 1 0 0-3 1.5 1.5 0 0 0 0 3zm5 0a1.5 1.5 0 1 0 0-3 1.5 1.5 0 0 0 0 3zm6.5-1a2 2 0 1 1 0-4 2 2 0 0 1 0 4z"/></svg>
